resources/icons/measurements/max.svg

<?xml version="1.0" encoding="UTF-8"?>
<svg width="30px" height="20px" version="1.1" viewBox="0 0 30 20" xmlns="http://www.w3.org/2000/svg">
 <g fill="none" fill-rule="evenodd">
  <g transform="translate(-1640 -350)">
   <g transform="translate(1640 350)">
    <path transform="translate(15 10) rotate(180) translate(-15 -10)" d="m1 17c0 1 1 2 3 2s3-2 3-2v-14h4c0-1 1-2 3-2s3 1 3 2v14h4c0 0.97902 1 2 3 2s3-1 3-2v-14c0-2 2-2 2-2" stroke="#727273" stroke-linecap="square" stroke-width="2"/>
    <rect width="30" height="1" fill="#4A64FF"/>
   </g>
  </g>
 </g>
</svg>

<?xml version="1.0" encoding="UTF-8" standalone="no"?>
<svg width="30px" height="20px" viewBox="0 0 30 20" version="1.1" xmlns="http://www.w3.org/2000/svg" xmlns:xlink="http://www.w3.org/1999/xlink">
    <!-- Generator: Sketch 41 (35326) - http://www.bohemiancoding.com/sketch -->
    <title>max</title>
    <desc>Created with Sketch.</desc>
    <defs></defs>
    <g id="main" stroke="none" stroke-width="1" fill="none" fill-rule="evenodd">
        <g id="gating-icons-HD" transform="translate(-1640.000000, -350.000000)">
            <g id="max" transform="translate(1640.000000, 350.000000)">
                <path d="M1,17 C1,18 2,19 4,19 C6,19 7,17 7,17 L7,3 C7,3 10,3 11,3 C11,2 12,1 14,1 C16,1 17,2 17,3 C17,4 17,17 17,17 C17,17 19,17 21,17 C21,17.9790159 22,19 24,19 C26,19 27,18 27,17 C27,14 27,5.5 27,3 C27,1 29,1 29,1" id="Line-Copy-12" stroke="#727273" stroke-width="2" stroke-linecap="square" transform="translate(15.000000, 10.000000) rotate(-180.000000) translate(-15.000000, -10.000000) "></path>
                <rect id="Rectangle_2_copy_122-Copy-26" fill="#4A64FF" x="0" y="0" width="30" height="1"></rect>
            </g>
        </g>
    </g>
</svg>
